X: 1
T: Miss Shepherd's Reel
C: J.S. Skinner
B: Portland Collection v.1 p.137
Z: 2019 John Chambers <jc:trillian.mit.edu>
M: C
L: 1/8
K: Am
|: "Am"A,B,CD E2DC | "G"B,G^FG    DB,G,B, |\
   "Am"A,B,CD EGAc |  "G"BAGB "Am"BcA2   :|
|: "A"^gaed ^cBA^F | "G"=GED=C    B,A,G,2 |\
[1 "A"^gaed ^cBA^F | "Em"GABd  "A"^cAA2  :|\
[2 "Am"A,B,CD EGAc | "Em"BAGB "Am"Bc A2  |] 
%%begintext
%% Sometimes played with the parts repeated, to get 32 bars.
%% The A major chords and c-sharp notes are unusual to this version.
%%endtext
